X: 1836
T: Rita Baker's Whistled Schottische
B: australian traditional tunes wiki
M:4/4
L:1/8
R: Schottische
Q: 1/4=100
K:D
V:1 
<FAD2F<AD2|B>c (3dcBA2F2|G<BE2F<AD2|E>F E<D C<EA,2|
F<AD2F<AD2|B>c (3dcBA2F2|G<BE2F<AD2|E>D C<ED2D2||
E2E<A c<B G<E|B>B B<cd2F2|E>E E<A c<B G<E|A2c2A2C2|
E>E E<A c<B G<E|B>B B<cd2F2|E>E E<A c<B G<E|A2c2A2z2||
% abcbook-tune_id 6342d53a1cdd7943fb9c30b8


% abcbook-boost 0
% abcbook-tablature 
% abcbook-transpose 
% abcbook-lastupdated 1665324386915
% abcbook-soundfonts 
% abcbook-repeats 1
% NFF Book 2018

